X:241
T: ZU WESEL AUF DER SCHANZ
N: E1380
O: Europa, Mitteleuropa, Deutschland, Westfalen
R: Staende -, Soldaten -, Kriegs - Lied
M: 2/4
L: 1/16
K: Eb
B2 | G2G2G2G2 | G6
F2 | G2F2G2A2 | G2F2z2
F2 | F2F2F2F2 | F6
G2 | A2G2A2B2 | A2G2z2
B2 | c2B2c2d2 | e2dcB2
A2 | G4F4 | E4z2

@@@ Tune index: 4925
